X: 1
T: Dusty Miller
M: 6/8
L: 1/8
W:hop jig - Chieftains settings
K: Dmaj
 A2 AG AG | AA AG Bd | AA AG AG | BG ~G2 Bd :|
 AD ~D2 Ad | AD ~D2 Bd | AD ~D2 GA | B2 BA Bd :|
W:up-tempo setting
 A2 AG AD | A2 AG B/c/d | A2 AG AD | BG ~G2 Bd :|
 AD ~D2 A2 | AD ~D2 Bd | AD ~D2 A2 | BG ~G2 Bd :|
